X: 67
T: 's Luada [D]
R: zweifacher
M: 43/44
L: 1/8
K: D
|: z2 \
| "D"[A4F4] [F4D4] | "A7" [FD][GE] [GE][DF] [E2C2] | "D"[EC][FD] [FD][EC] D2 \
| "D"[A4F4] [F4D4] | "A7" [FD][GE] [GE][DF] [E2C2] | "D"D2 z2 :|
|: [d2F2] \
| "A7"[c2A2] [c2A2] [B2G2] [B2G2] | "D"[A2F2] [A2F2] [F4D4] \
| "A7"[G2E2] [G2E2] [E2C2] [E2C2] | "D"[FD][EC] [FD][GE] [A2F2] [d2F2] \
| "A7"[c2A2] [c2A2] [B2G2] [B2G2] | "D"[A2F2] [A2F2] [F4D4] \
| "G"[B2G2] [B2G2] "A7"[c3E3] [cE] | "D"[d2F] [d2F] [d2F] :|
%%sep 2 1 500
